T: Willie Clancy's
M: 4/4
L: 1/8
K: Ador
AG|EAAB c3A |BG G2 BGAG |EAAB cdef |(3gfe dB BAAG |
EAAB cedc |BG G2 BGAG |EAAB cdef |(3gfe dB BAAG |
EAAB c3A |BG G2 BGAG |EAAB cdef |(3gfe dB BAAG |
EAAB cA A2 |BG G2 cAAG |EAAB cBce |dBGA BAAg ||
|:ea a2 aged |(3Bcd ef g2 fg | eaag agef |(3gfe dB BAAg |
ea a2 aged |(3Bcd ef g2 fg | af (3gfe fdef |(3gfe db BAAg :|
